status/32/dialog-error.svg

<?xml version="1.0" encoding="UTF-8" standalone="no"?>
<svg
   xmlns:dc="http://purl.org/dc/elements/1.1/"
   xmlns:cc="http://creativecommons.org/ns#"
   xmlns:rdf="http://www.w3.org/1999/02/22-rdf-syntax-ns#"
   xmlns:svg="http://www.w3.org/2000/svg"
   xmlns="http://www.w3.org/2000/svg"
   xmlns:xlink="http://www.w3.org/1999/xlink"
   version="1.1"
   width="32"
   height="32"
   id="svg3658">
  <defs
     id="defs3660">
    <linearGradient
       id="linearGradient4011">
      <stop
         id="stop4013"
         style="stop-color:#ffffff;stop-opacity:1"
         offset="0" />
      <stop
         id="stop4015"
         style="stop-color:#ffffff;stop-opacity:0.23529412"
         offset="0.507761" />
      <stop
         id="stop4017"
         style="stop-color:#ffffff;stop-opacity:0.15686275"
         offset="0.83456558" />
      <stop
         id="stop4019"
         style="stop-color:#ffffff;stop-opacity:0.39215687"
         offset="1" />
    </linearGradient>
    <linearGradient
       id="linearGradient3242">
      <stop
         id="stop3244"
         style="stop-color:#f8b17e;stop-opacity:1"
         offset="0" />
      <stop
         id="stop3246"
         style="stop-color:#e35d4f;stop-opacity:1"
         offset="0.26238" />
      <stop
         id="stop3248"
         style="stop-color:#c6262e;stop-opacity:1"
         offset="0.66093999" />
      <stop
         id="stop3250"
         style="stop-color:#690b54;stop-opacity:1"
         offset="1" />
    </linearGradient>
    <linearGradient
       x1="71.204407"
       y1="6.2375584"
       x2="71.204407"
       y2="44.340794"
       id="linearGradient3017"
       xlink:href="#linearGradient4011"
       gradientUnits="userSpaceOnUse"
       gradientTransform="matrix(0.72972967,0,0,0.72972967,-36.346078,-2.5039291)" />
    <radialGradient
       cx="21.994528"
       cy="4.0384412"
       r="20.397499"
       fx="21.994528"
       fy="4.0384412"
       id="radialGradient3022"
       xlink:href="#linearGradient3242"
       gradientUnits="userSpaceOnUse"
       gradientTransform="matrix(0,2.0590762,-2.7179439,0,26.844604,-48.288409)" />
    <linearGradient
       x1="90.944229"
       y1="10.299712"
       x2="90.944229"
       y2="56.571861"
       id="linearGradient3124-5"
       xlink:href="#linearGradient5803-2-7-6"
       gradientUnits="userSpaceOnUse"
       gradientTransform="matrix(0.44444444,0,0,0.44444444,-24.00002,1.7959951)" />
    <linearGradient
       id="linearGradient5803-2-7-6">
      <stop
         id="stop5805-3-6-9"
         style="stop-color:#fffdf3;stop-opacity:1"
         offset="0" />
      <stop
         id="stop5807-0-0-0"
         style="stop-color:#fbebeb;stop-opacity:1"
         offset="1" />
    </linearGradient>
    <linearGradient
       id="linearGradient3820-7-2-2">
      <stop
         id="stop3822-2-6-36"
         style="stop-color:#3d3d3d;stop-opacity:1"
         offset="0" />
      <stop
         id="stop3864-8-7-6"
         style="stop-color:#686868;stop-opacity:0.49803922"
         offset="0.5" />
      <stop
         id="stop3824-1-2-4"
         style="stop-color:#686868;stop-opacity:0"
         offset="1" />
    </linearGradient>
    <radialGradient
       cx="99.157013"
       cy="186.17059"
       r="62.769119"
       fx="99.157013"
       fy="186.17059"
       id="radialGradient4048"
       xlink:href="#linearGradient3820-7-2-2"
       gradientUnits="userSpaceOnUse"
       gradientTransform="matrix(0.17524541,0,0,0.05575992,-1.3768101,18.11895)" />
    <radialGradient
       cx="62.625"
       cy="4.625"
       r="10.625"
       fx="62.625"
       fy="4.625"
       id="radialGradient4112"
       xlink:href="#linearGradient8838"
       gradientUnits="userSpaceOnUse"
       gradientTransform="matrix(1.5058824,0,0,0.37647,-78.305888,26.258824)" />
    <linearGradient
       id="linearGradient8838">
      <stop
         id="stop8840"
         style="stop-color:#000000;stop-opacity:1"
         offset="0" />
      <stop
         id="stop8842"
         style="stop-color:#000000;stop-opacity:0"
         offset="1" />
    </linearGradient>
    <linearGradient
       id="linearGradient2490">
      <stop
         id="stop2492"
         style="stop-color:#791235;stop-opacity:1"
         offset="0" />
      <stop
         id="stop2494"
         style="stop-color:#dd3b27;stop-opacity:1"
         offset="1" />
    </linearGradient>
    <linearGradient
       x1="18.379412"
       y1="44.980297"
       x2="18.379412"
       y2="3.0816143"
       id="linearGradient3015"
       xlink:href="#linearGradient2490"
       gradientUnits="userSpaceOnUse"
       gradientTransform="matrix(0.7126612,0,0,0.7126613,-1.1038705,-1.1038698)" />
    <linearGradient
       id="linearGradient3242-5">
      <stop
         id="stop3244-4"
         style="stop-color:#f8b17e;stop-opacity:1"
         offset="0" />
      <stop
         id="stop3246-1"
         style="stop-color:#e35d4f;stop-opacity:1"
         offset="0.26238" />
      <stop
         id="stop3248-5"
         style="stop-color:#c6262e;stop-opacity:1"
         offset="0.66093999" />
      <stop
         id="stop3250-6"
         style="stop-color:#690b54;stop-opacity:1"
         offset="1" />
    </linearGradient>
    <radialGradient
       cx="23.895569"
       cy="3.9900031"
       r="20.397499"
       fx="23.895569"
       fy="3.9900031"
       id="radialGradient3013"
       xlink:href="#linearGradient3242-5"
       gradientUnits="userSpaceOnUse"
       gradientTransform="matrix(0,1.7008781,-2.245129,0,24.958071,-40.236051)" />
    <linearGradient
       id="linearGradient4011-5">
      <stop
         id="stop4013-5"
         style="stop-color:#ffffff;stop-opacity:1"
         offset="0" />
      <stop
         id="stop4015-3"
         style="stop-color:#ffffff;stop-opacity:0.23529412"
         offset="0.507761" />
      <stop
         id="stop4017-4"
         style="stop-color:#ffffff;stop-opacity:0.15686275"
         offset="0.83456558" />
      <stop
         id="stop4019-3"
         style="stop-color:#ffffff;stop-opacity:0.39215687"
         offset="1" />
    </linearGradient>
    <linearGradient
       x1="71.204407"
       y1="6.2375584"
       x2="71.204407"
       y2="44.340794"
       id="linearGradient3524"
       xlink:href="#linearGradient4011-5"
       gradientUnits="userSpaceOnUse"
       gradientTransform="matrix(0.72972967,0,0,0.72972967,-36.346078,-2.5039291)" />
    <linearGradient
       id="linearGradient4064">
      <stop
         id="stop4066"
         style="stop-color:#000000;stop-opacity:1"
         offset="0" />
      <stop
         id="stop4068"
         style="stop-color:#000000;stop-opacity:0"
         offset="1" />
    </linearGradient>
    <linearGradient
       x1="12.545796"
       y1="13.380438"
       x2="12.545796"
       y2="18.743122"
       id="linearGradient4070"
       xlink:href="#linearGradient4064"
       gradientUnits="userSpaceOnUse"
       gradientTransform="matrix(0.95454545,0,0,0.75,0.72727279,4)" />
    <linearGradient
       x1="12.545796"
       y1="13.380438"
       x2="12.545796"
       y2="18.743122"
       id="linearGradient4391"
       xlink:href="#linearGradient4064"
       gradientUnits="userSpaceOnUse"
       gradientTransform="matrix(0.95454545,0,0,0.75,19.354613,-24.558347)" />
    <linearGradient
       x1="71.204407"
       y1="6.2375584"
       x2="71.204407"
       y2="44.340794"
       id="linearGradient4396"
       xlink:href="#linearGradient4011-5"
       gradientUnits="userSpaceOnUse"
       gradientTransform="matrix(0.72972967,0,0,0.72972967,8.462908,-35.848168)" />
    <radialGradient
       cx="23.895569"
       cy="3.9900031"
       r="20.397499"
       fx="23.895569"
       fy="3.9900031"
       id="radialGradient4399"
       xlink:href="#linearGradient3242-5"
       gradientUnits="userSpaceOnUse"
       gradientTransform="matrix(0,1.7008781,-2.245129,0,69.767057,-73.58029)" />
    <linearGradient
       x1="18.379412"
       y1="44.980297"
       x2="18.379412"
       y2="3.0816143"
       id="linearGradient4401"
       xlink:href="#linearGradient2490"
       gradientUnits="userSpaceOnUse"
       gradientTransform="matrix(0.7126612,0,0,0.7126613,43.705115,-34.448109)" />
    <radialGradient
       cx="62.625"
       cy="4.625"
       r="10.625"
       fx="62.625"
       fy="4.625"
       id="radialGradient4404"
       xlink:href="#linearGradient8838"
       gradientUnits="userSpaceOnUse"
       gradientTransform="matrix(1.5058824,0,0,0.37647,-33.496902,-7.085415)" />
    <linearGradient
       x1="90.944229"
       y1="10.299712"
       x2="90.944229"
       y2="56.571861"
       id="linearGradient3124-5-9"
       xlink:href="#linearGradient5803-2-7-6-8"
       gradientUnits="userSpaceOnUse"
       gradientTransform="matrix(0.44444444,0,0,0.44444444,-24.00002,1.7959951)" />
    <linearGradient
       id="linearGradient5803-2-7-6-8">
      <stop
         id="stop5805-3-6-9-9"
         style="stop-color:#fffdf3;stop-opacity:1"
         offset="0" />
      <stop
         id="stop5807-0-0-0-5"
         style="stop-color:#fbebeb;stop-opacity:1"
         offset="1" />
    </linearGradient>
  </defs>
  <metadata
     id="metadata3663">
    <rdf:RDF>
      <cc:Work
         rdf:about="">
        <dc:format>image/svg+xml</dc:format>
        <dc:type
           rdf:resource="http://purl.org/dc/dcmitype/StillImage" />
        <dc:title />
      </cc:Work>
    </rdf:RDF>
  </metadata>
  <path
     d="m 27.000001,28.499804 a 11,3.4999999 0 1 1 -21.9999997,0 11,3.4999999 0 1 1 21.9999997,0 z"
     id="path3818-0-2"
     style="fill:url(#radialGradient4048);fill-opacity:1;stroke:none" />
  <path
     d="m 16.000001,1.5017981 c -7.9996071,0 -14.4982031,6.4985937 -14.4982031,14.4982009 0,7.999609 6.498596,14.498206 14.4982031,14.498203 7.999605,0 14.498209,-6.498594 14.498201,-14.498203 0,-7.9996072 -6.498596,-14.4982009 -14.498201,-14.4982009 z"
     id="path2555"
     style="fill:url(#radialGradient3022);fill-opacity:1;stroke:none" />
  <path
     d="M 29.5,15.999522 C 29.5,23.455606 23.455399,29.5 16.000171,29.5 8.5442604,29.5 2.5,23.455537 2.5,15.999522 2.5,8.5437833 8.5442604,2.5000024 16.000171,2.5000024 23.455399,2.5000024 29.5,8.5437833 29.5,15.999522 l 0,0 z"
     id="path8655-6"
     style="opacity:0.5;color:#000000;fill:none;stroke:url(#linearGradient3017);stroke-width:0.99999994;stroke-linecap:round;stroke-linejoin:round;stroke-miterlimit:4;stroke-opacity:1;stroke-dasharray:none;stroke-dashoffset:0;marker:none;visibility:visible;display:inline;overflow:visible;enable-background:accumulate" />
  <path
     d="m 16.000001,1.5017981 c -7.9996071,0 -14.4982031,6.4985937 -14.4982031,14.4982009 0,7.999609 6.498596,14.498206 14.4982031,14.498203 7.999605,0 14.498209,-6.498594 14.498201,-14.498203 0,-7.9996072 -6.498596,-14.4982009 -14.498201,-14.4982009 z"
     id="path2555-4"
     style="opacity:0.5;color:#000000;fill:none;stroke:#6f0000;stroke-width:1;stroke-linecap:round;stroke-linejoin:round;stroke-miterlimit:4;stroke-opacity:1;stroke-dasharray:none;stroke-dashoffset:0;marker:none;visibility:visible;display:inline;overflow:visible;enable-background:accumulate" />
  <path
     d="M 4.78125,13.96875 A 1.0452056,1.0452056 0 0 0 3.96875,15 l 0,4 A 1.0452056,1.0452056 0 0 0 5,20.03125 l 22,0 A 1.0452056,1.0452056 0 0 0 28.03125,19 l 0,-4 A 1.0452056,1.0452056 0 0 0 27,13.96875 l -22,0 a 1.0452056,1.0452056 0 0 0 -0.21875,0 z"
     id="path4525"
     style="font-size:89.63063812px;font-style:normal;font-variant:normal;font-weight:normal;font-stretch:normal;text-align:start;line-height:125%;writing-mode:lr-tb;text-anchor:start;opacity:0.15;color:#000000;fill:#661215;fill-opacity:1;fill-rule:evenodd;stroke:none;stroke-width:1;marker:none;visibility:visible;display:inline;overflow:visible;enable-background:accumulate;font-family:Georgia" />
  <path
     d="m 5,19 c 7.333335,0 14.666666,0 22,0 0,-1.333332 0,-2.666667 0,-4 -7.333334,0 -14.666665,0 -22,0 0,1.333333 0,2.666668 0,4 z"
     id="path3271-5"
     style="font-size:89.63063812px;font-style:normal;font-variant:normal;font-weight:normal;font-stretch:normal;text-align:start;line-height:125%;writing-mode:lr-tb;text-anchor:start;opacity:0.3;color:#000000;fill:#661215;fill-opacity:1;fill-rule:evenodd;stroke:none;stroke-width:1;marker:none;visibility:visible;display:inline;overflow:visible;enable-background:accumulate;font-family:Georgia" />
  <path
     d="m 5,18 c 7.333335,0 14.666666,0 22,0 0,-1.333332 0,-2.666667 0,-4 -7.333334,0 -14.666665,0 -22,0 0,1.333333 0,2.666668 0,4 z"
     id="path3271"
     style="font-size:89.63063812px;font-style:normal;font-variant:normal;font-weight:normal;font-stretch:normal;text-align:start;line-height:125%;writing-mode:lr-tb;text-anchor:start;color:#000000;fill:url(#linearGradient3124-5-9);fill-opacity:1;fill-rule:nonzero;stroke:none;stroke-width:1;marker:none;visibility:visible;display:inline;overflow:visible;enable-background:accumulate;font-family:Georgia" />
</svg>

<svg xmlns="http://www.w3.org/2000/svg" xmlns:xlink="http://www.w3.org/1999/xlink" width="32" height="32"><defs><linearGradient id="a"><stop offset="0" stop-color="#fff"/><stop offset=".508" stop-color="#fff" stop-opacity=".235"/><stop offset=".835" stop-color="#fff" stop-opacity=".157"/><stop offset="1" stop-color="#fff" stop-opacity=".392"/></linearGradient><linearGradient id="b"><stop offset="0" stop-color="#f8b17e"/><stop offset=".262" stop-color="#e35d4f"/><stop offset=".661" stop-color="#c6262e"/><stop offset="1" stop-color="#690b54"/></linearGradient><linearGradient x1="71.204" y1="6.238" x2="71.204" y2="44.341" id="g" xlink:href="#a" gradientUnits="userSpaceOnUse" gradientTransform="translate(-36.346 -2.504) scale(.72973)"/><radialGradient cx="21.995" cy="4.038" r="20.397" fx="21.995" fy="4.038" id="f" xlink:href="#b" gradientUnits="userSpaceOnUse" gradientTransform="matrix(0 2.05908 -2.71794 0 26.845 -48.288)"/><linearGradient id="c"><stop offset="0" stop-color="#3d3d3d"/><stop offset=".5" stop-color="#686868" stop-opacity=".498"/><stop offset="1" stop-color="#686868" stop-opacity="0"/></linearGradient><radialGradient cx="99.157" cy="186.171" r="62.769" fx="99.157" fy="186.171" id="e" xlink:href="#c" gradientUnits="userSpaceOnUse" gradientTransform="matrix(.17525 0 0 .05576 -1.377 18.12)"/><linearGradient x1="90.944" y1="10.3" x2="90.944" y2="56.572" id="h" xlink:href="#d" gradientUnits="userSpaceOnUse" gradientTransform="translate(-24 1.796) scale(.44444)"/><linearGradient id="d"><stop offset="0" stop-color="#fffdf3"/><stop offset="1" stop-color="#fbebeb"/></linearGradient></defs><path d="M27 28.5a11 3.5 0 1 1-22 0 11 3.5 0 1 1 22 0z" fill="url(#e)"/><path d="M16 1.502C8 1.502 1.502 8 1.502 16 1.502 24 8 30.498 16 30.498 24 30.498 30.498 24 30.498 16 30.498 8 24 1.502 16 1.502z" fill="url(#f)"/><path d="M29.5 16c0 7.456-6.045 13.5-13.5 13.5-7.456 0-13.5-6.044-13.5-13.5S8.544 2.5 16 2.5c7.455 0 13.5 6.044 13.5 13.5z" opacity=".5" color="#000" fill="none" stroke="url(#g)" stroke-linecap="round" stroke-linejoin="round" overflow="visible"/><path d="M16 1.502C8 1.502 1.502 8 1.502 16 1.502 24 8 30.498 16 30.498 24 30.498 30.498 24 30.498 16 30.498 8 24 1.502 16 1.502z" opacity=".5" color="#000" fill="none" stroke="#6f0000" stroke-linecap="round" stroke-linejoin="round" overflow="visible"/><path d="M4.78 13.97A1.045 1.045 0 0 0 3.97 15v4A1.045 1.045 0 0 0 5 20.03h22A1.045 1.045 0 0 0 28.03 19v-4A1.045 1.045 0 0 0 27 13.97H5a1.045 1.045 0 0 0-.22 0z" style="text-align:start;line-height:125%" font-size="89.631" font-weight="400" opacity=".15" color="#000" fill="#661215" fill-rule="evenodd" overflow="visible" font-family="Georgia"/><path d="M5 19h22v-4H5v4z" style="text-align:start;line-height:125%" font-size="89.631" font-weight="400" opacity=".3" color="#000" fill="#661215" fill-rule="evenodd" overflow="visible" font-family="Georgia"/><path d="M5 18h22v-4H5v4z" style="text-align:start;line-height:125%" font-size="89.631" font-weight="400" color="#000" fill="url(#h)" overflow="visible" font-family="Georgia"/></svg>
